X:32
T:Merry Blacksmith, The
M:C|
R:reel
K:D
AB|d2 dA BAFA|ABdA BAFA|ABde fded|Beed egfe|d2 dA BAFA|
~A2 FA BAFA|ABde fedB|AFEF D2::fg|a2 ag ~f3 e|dedA BAFA|
ABde f2ed|Beed efge|abag fgfe|d3 A BAFA|ABde fe dB|AFEF D2:|

